www/assets/images/src/mouse-arrow-icon.svg

<svg fill="none" height="32" viewBox="0 0 31 32" width="31" xmlns="http://www.w3.org/2000/svg"><path clip-rule="evenodd" d="m29.5229 1.72243c.5515.5652.9324 1.47394.6586 2.44364l-.1667.59028c-2.5431 9.00605-5.9114 17.64285-10.065 25.80505-.5486 1.078-1.675 1.3319-2.5395 1.1067-.8458-.2203-1.6209-.9116-1.8424-1.9316l-2.0512-9.4427c-.2267-1.0437-1.0877-1.9067-2.0583-2.1259l-9.18617-2.0745c-1.03538-.2338-1.694252-1.0477-1.901036-1.8748-.207688-.8308.000327-1.966 1.062396-2.5433 7.92163-4.30615 16.30861-7.80627 25.05861-10.45852l.5731-.17372c.9917-.300595 1.9076.11567 2.4576.67937zm-1.8479 1.83049-.4347.13177c-8.3916 2.5436-16.439 5.88086-24.04988 9.97241l8.83598 1.9954c1.9809.4473 3.5779 2.1035 4.0103 4.0938l1.9508 8.9806c3.9217-7.8129 7.1161-16.068 9.5456-24.67135z" fill="#ffc830" fill-rule="evenodd"/></svg>

<svg width="31" height="32" viewBox="0 0 31 32" fill="none" xmlns="http://www.w3.org/2000/svg">
<path fill-rule="evenodd" clip-rule="evenodd" d="M29.5229 1.72243C30.0744 2.28763 30.4553 3.19637 30.1815 4.16607L30.0148 4.75635C27.4717 13.7624 24.1034 22.3992 19.9498 30.5614C19.4012 31.6394 18.2748 31.8933 17.4103 31.6681C16.5645 31.4478 15.7894 30.7565 15.5679 29.7365L13.5167 20.2938C13.29 19.2501 12.429 18.3871 11.4584 18.1679L2.27223 16.0934C1.23685 15.8596 0.577978 15.0457 0.371194 14.2186C0.163506 13.3878 0.371521 12.2526 1.43359 11.6753C9.35522 7.36915 17.7422 3.86903 26.4922 1.21678L27.0653 1.04306C28.057 0.742465 28.9729 1.15873 29.5229 1.72243ZM27.675 3.55292L27.2403 3.68469C18.8487 6.22829 10.8013 9.56555 3.19042 13.6571L12.0264 15.6525C14.0073 16.0998 15.6043 17.756 16.0367 19.7463L17.9875 28.7269C21.9092 20.914 25.1036 12.6589 27.5331 4.05555L27.675 3.55292Z" fill="#FFC830"/>
</svg>
